X:20
T:Canon in D
C:Johann Pachelbel
N:TablEdited by Wendy Anthony 10 Dec 2004
L:1/8
Q:1/4=40
M:4/4
K:D
z8 | z8 | f2 e2 d2 c2 | B2 A2 B2 c2 | d2 c2 B2 A2 | G2 F2 G2 E2 | DF AG FD FE | 
DB, DA GB AG | FD Ec df aA | BG AF Dd d3/2c/ | d/c/d/D/ C/A/E/F/ D/d/c/B/ c/f/a/b/ | 
g/f/e/g/ f/e/d/c/ B/A/G/F/ E/G/F/E/ | D/E/F/G/ A/E/A/G/ F/B/A/G/ A/G/F/E/ | D/B,/B/c/ d/c/B/A/ G/F/E/B/ A/B/A/G/ | 
Ff e2 zd f2 | b2 a2 b2 c'2 | d'd c2 zB d2 | d3d dg ea | a/f/4g/4a/f/4g/4 a/4A/4B/4c/4d/4e/4f/4g/4 f/d/4e/4f/F/4G/4 A/4B/4A/4G/4A/4F/4G/4A/4 | 
G/B/4A/4G/F/4E/4 F/4E/4D/4E/4F/4G/4A/4B/4 G/B/4A/4B/c/4d/4 A/4B/4c/4d/4e/4f/4g/4a/4 | 
f/d/4e/4f/e/4d/4 e/4c/4d/4e/4f/4e/4d/4c/4 d/B/4c/4d/D/4E/4 F/4G/4F/4E/4F/4d/4c/4d/4 | 
B/d/4c/4B/A/4G/4 A/4G/4F/4G/4A/4B/4c/4d/4 B/d/4c/4d/c/4B/4 c/4d/4e/4d/4c/4d/4B/4c/4 | 
d2 c2 B2 d2 | D2 D2 D2 E2 | zA2A2F2A | zG zF2G ze | f/F/G/F/ E/e/f/e/ d/F/D/B/ A/A,/G,/A,/ | 
B,/B/c/B/ A/A,/G,/A,/ B,/B/A/B/ c/C/B,/C/ | D/d/e/d/ c/C/D/C/ B,/B/A/B/ c/C/F/E/ | 
D/d/e/g/ f/F/A/f/ d/g/f/g/ e/A/G/A/ | F/A/A/A/ A/A/A/A/ F/F/F/F/ F/F/A/A/ | G/G/G/d/ d/d/d/d/ d/d/B/B/ A/A/e/c/ | 
A/f/f/f/ e/e/e/e/ d/d/d/d/ a/a/a/a/ | b/b/b/b/ a/a/a/a/ b/b/b/b/ c'/c/c/c/ | d/D/4E/4F/D/ C/c/4d/4e/c/ B/B,/4C/4D/B,/ C/A/4G/4F/E/ | 
D/G/4F/4E/G/ F/D/4E/4F/A/ G/B/4A/4G/F/ E/A/4G/4F/E/ | F/d/4c/4d/F/ A/A/4B/4c/A/ F/d/4e/4f/d/ f/f/4e/4d/c/ | 
B/B/4A/4B/c/ d/f/4e/4d/f/ g/d/4c/4B/B/ A/E/A/A/ | A3A D3A | G2 A2 GD D3/2C/ | 
Dd c2 B2 A2 | D3/2E/ F2 B2 E3/2E/ | F3/2f/ f/g/f/e/ d3/2d/ d/e/d/c/ | B2 d2 d/=c/B/c/ A3/2A/ | 
A3/2a/ a/b/a/g/ f3/2f/ f/g/f/e/ | d/=c/B/c/ A3/2A/ Gd ^c3/2c/ | dd zc zB zA | 
zG zF z3/2E/ E2 | Ff ze dd' z=c' | b2 d'a b2 a2 | a2 A3/2G/ F2 f3/2e/ | d3d d2 c2 | 
dD Cc BB, A,A | Gg fF EB Ee | fF Ee dD Cc | Bb aA G3/2e/ AA | A8 | 
 

